X: 37682
T: Snuff Wife, The
R: jig
M: 6/8
K: Amixolydian
|:d2c BGB|BGB BGB|d2c ~B3|~A3 c2A|
d2c BGB|BGB Bcd|e2d cBc|~A3 c2A:|
|:Bcd dcd|Bcd dcd|cAc BcB|~A3 c2A|
Bcd dcd|BGB Bcd|e2d cBc|1 ~A3 c2A:|2 ~A3 d2f||
|:ecA ecA|ecA ecA|~f3 ~e3|~d3 fed|
ecA ecA|ecA efg|agf gfe|~d3 fed:|
|:efg gfg|efg gfg|agf gfe|~d3 fed|
efg gfg|~e3 efg|agf gfe|~d3 fed:|

